X:1
T:The Black Rogue
R:jig
M:6/8
L:1/8
K:D
d|:cAA BGB|cAA A2d|cAA BGB|AFD D2d|
|cAA BGB|cAA AGF|~G2G BAG|1 AFD D2d:|2 AFD D2e|]
|:~f2f gfg|afd cBA|~f2f gfg|afd dfg|
|agf gfe|fed ~e2d|cAA BAG|1 AFD D2e:|2 AFD D2d|]